X:1
T:Lovely Ann
M:3/4
L:1/4
K:G
 D| A- B c| A2F/2-A/2| A2 A| G- F D/2D/2| C2C/2-D/2| D2 E| D3| z2 d|\
 B A G| A A/2 A/2- B| B/2- d3/2c/2-B/2| A2 d| c- B A| G- D E| C3| z2 d|\
 B- A G| A3/2 A/2- B| B/2- d3/2c/2-B/2| A2 d| c- B A| G- D E| C3| z z/2 D/2 D|\
 A3/2 B/2 c| A D A| A2 F| G- F D| C2 D| D2 E| D3| z2||
